packages/icons/web/card_unknown_large.svg

<svg width="24" height="24" viewBox="0 0 24 24" fill="none" xmlns="http://www.w3.org/2000/svg">
<path d="M4.63636 5H19.3636V3H4.63636V5ZM19.3636 5C19.7988 5 20 5.30398 20 5.5H22C22 4.03916 20.736 3 19.3636 3V5ZM20 5.5V14.5H22V5.5H20ZM20 14.5C20 14.6724 19.9398 14.7932 19.8694 14.8661C19.8041 14.9338 19.6927 15 19.5 15V17C20.989 17 22 15.8471 22 14.5H20ZM4.5 15C4.3073 15 4.19587 14.9338 4.13057 14.8661C4.06017 14.7932 4 14.6724 4 14.5H2C2 15.8471 3.011 17 4.5 17V15ZM4 14.5V5.5H2V14.5H4ZM4 5.5C4 5.30398 4.20122 5 4.63636 5V3C3.26403 3 2 4.03916 2 5.5H4ZM19.5 15H17V17H19.5V15ZM4.5 17H7V15H4.5V17Z" fill="#212933"/>
<path d="M3 8H21" stroke="#212933" stroke-width="2" stroke-linecap="round" stroke-linejoin="round"/>
<path d="M12 21C14.7614 21 17 18.7614 17 16C17 13.2386 14.7614 11 12 11C9.23858 11 7 13.2386 7 16C7 18.7614 9.23858 21 12 21Z" stroke="#212933" stroke-width="2" stroke-linecap="round" stroke-linejoin="round"/>
<path d="M10.5 15C10.5 14.7033 10.588 14.4133 10.7528 14.1666C10.9176 13.92 11.1519 13.7277 11.426 13.6142C11.7001 13.5006 12.0017 13.4709 12.2926 13.5288C12.5836 13.5867 12.8509 13.7296 13.0607 13.9393C13.2704 14.1491 13.4133 14.4164 13.4712 14.7074C13.5291 14.9983 13.4994 15.2999 13.3858 15.574C13.2723 15.8481 13.08 16.0824 12.8334 16.2472C12.5867 16.412 12.2967 16.5 12 16.5" stroke="#212933" stroke-width="1.5" stroke-linecap="round" stroke-linejoin="round"/>
<path d="M12 18C12.0989 18 12.1956 18.0293 12.2778 18.0843C12.36 18.1392 12.4241 18.2173 12.4619 18.3087C12.4998 18.4 12.5097 18.5006 12.4904 18.5975C12.4711 18.6945 12.4235 18.7836 12.3536 18.8536C12.2836 18.9235 12.1945 18.9711 12.0975 18.9904C12.0006 19.0097 11.9 18.9998 11.8087 18.9619C11.7173 18.9241 11.6392 18.86 11.5843 18.7778C11.5293 18.6956 11.5 18.5989 11.5 18.5C11.5 18.3674 11.5527 18.2402 11.6464 18.1464C11.7402 18.0527 11.8674 18 12 18Z" stroke="#212933" stroke-linecap="round" stroke-linejoin="round"/>
</svg>

<svg width="24" height="24" fill="none" xmlns="http://www.w3.org/2000/svg">
    <path d="M4.636 5h14.728V3H4.636v2zm14.728 0c.435 0 .636.304.636.5h2C22 4.04 20.736 3 19.364 3v2zm.636.5v9h2v-9h-2zm0 9c0 .172-.06.293-.13.366-.066.068-.177.134-.37.134v2c1.489 0 2.5-1.153 2.5-2.5h-2zM4.5 15c-.193 0-.304-.066-.37-.134A.515.515 0 014 14.5H2C2 15.847 3.011 17 4.5 17v-2zm-.5-.5v-9H2v9h2zm0-9c0-.196.201-.5.636-.5V3C3.264 3 2 4.04 2 5.5h2zM19.5 15H17v2h2.5v-2zm-15 2H7v-2H4.5v2z" fill="currentColor"/>
    <path d="M3 8h18m-9 13a5 5 0 100-10 5 5 0 000 10z" stroke="currentColor" stroke-width="2" stroke-linecap="round" stroke-linejoin="round"/>
    <path d="M10.5 15a1.5 1.5 0 111.5 1.5" stroke="currentColor" stroke-width="1.5" stroke-linecap="round" stroke-linejoin="round"/>
    <path d="M12 18a.5.5 0 110 1 .5.5 0 010-1z" stroke="currentColor" stroke-linecap="round" stroke-linejoin="round"/>
</svg>
